media/icons/menu_icons/bug-symbolic.svg

<?xml version="1.0" encoding="UTF-8" standalone="no"?>
<svg
   xmlns:dc="http://purl.org/dc/elements/1.1/"
   xmlns:cc="http://creativecommons.org/ns#"
   xmlns:rdf="http://www.w3.org/1999/02/22-rdf-syntax-ns#"
   xmlns:svg="http://www.w3.org/2000/svg"
   xmlns="http://www.w3.org/2000/svg"
   xmlns:sodipodi="http://sodipodi.sourceforge.net/DTD/sodipodi-0.dtd"
   xmlns:inkscape="http://www.inkscape.org/namespaces/inkscape"
   inkscape:version="1.0 (4035a4fb49, 2020-05-01)"
   sodipodi:docname="bug-symbolic.svg"
   width="64"
   height="64"
   version="1.1"
   id="svg24">
  <sodipodi:namedview
     inkscape:document-rotation="0"
     inkscape:current-layer="svg24"
     inkscape:window-maximized="1"
     inkscape:window-y="40"
     inkscape:window-x="0"
     inkscape:cy="32"
     inkscape:cx="1.6271186"
     inkscape:zoom="3.6875"
     showgrid="false"
     id="namedview949"
     inkscape:window-height="898"
     inkscape:window-width="1920"
     inkscape:pageshadow="2"
     inkscape:pageopacity="0"
     guidetolerance="10"
     gridtolerance="10"
     objecttolerance="10"
     borderopacity="1"
     bordercolor="#666666"
     pagecolor="#ffffff" />
  <metadata
     id="metadata30">
    <rdf:RDF>
      <cc:Work
         rdf:about="">
        <dc:format>image/svg+xml</dc:format>
        <dc:type
           rdf:resource="http://purl.org/dc/dcmitype/StillImage" />
        <dc:title />
      </cc:Work>
    </rdf:RDF>
  </metadata>
  <defs
     id="defs28" />
  <g
     id="g2939"
     transform="matrix(1.3902439,0,0,1.3902439,-1.3658536,-2.0609755)">
    <path
       style="opacity:1;fill:#cccccc"
       d="M 16,5 C 9.352,5 4,10.352 4,17 v 16 c 0,6.648 5.352,12 12,12 h 16 c 6.648,0 12,-5.352 12,-12 V 17 C 44,10.352 38.648,5 32,5 Z m -3.105469,4 c 0.227175,0.8413676 0.433441,1.69034 0.740235,2.507812 0.66232,1.817165 2.31064,3.987667 4.30664,4.673829 1.50518,-1.864595 3.219532,-3.581581 4.896485,-5.273438 -0.988846,1.654221 -1.978275,3.309277 -2.964844,4.964844 -2.031558,3.472475 -3.891832,7.043375 -5.880859,10.541015 -0.573611,0.873581 -1.208509,2.452345 -1.763672,2.923829 0.47331,-2.605009 1.222113,-5.165819 2.318359,-7.582032 0.481466,-1.200952 1.098909,-2.31985 1.796875,-3.386718 -0.656381,-0.48172 -1.286768,-1.340749 -1.667969,-1.822266 C 13.273134,14.31195 12.875851,11.59304 12.894531,9 Z m 22.210938,0 c 0.01868,2.59304 -0.378603,5.31195 -1.78125,7.546875 -0.381201,0.481517 -1.011588,1.340546 -1.667969,1.822266 0.697966,1.066868 1.315409,2.185766 1.796875,3.386718 1.096246,2.416213 1.845049,4.977023 2.318359,7.582032 -0.555163,-0.471484 -1.190061,-2.050247 -1.763672,-2.923829 -1.989027,-3.49764 -3.849301,-7.06854 -5.880859,-10.541015 -0.986569,-1.655567 -1.975998,-3.310623 -2.964844,-4.964844 1.676952,1.691857 3.391305,3.408843 4.896485,5.273438 1.996,-0.686162 3.64432,-2.856664 4.30664,-4.673829 C 34.672028,10.69034 34.878293,9.8413676 35.105469,9 Z m -12.056641,1.757812 v 0.152344 c -0.695481,3.345747 -1.543319,6.673447 -2.30664,10.009766 -0.361469,1.292719 -0.518824,2.672563 -1.015626,3.908203 -1.758665,1.260505 -3.514867,2.525412 -5.291015,3.761719 -0.359947,0.121822 -1.575742,1.393128 -1.414063,0.777344 3.296446,-6.225864 6.663898,-12.418109 10.027344,-18.609376 z m 1.902344,0 c 3.363446,6.191267 6.730898,12.383512 10.027344,18.609376 0.161679,0.615785 -1.054116,-0.655522 -1.414063,-0.777344 -1.776148,-1.236307 -3.53235,-2.501214 -5.291015,-3.761719 -0.496802,-1.23564 -0.654158,-2.615484 -1.015626,-3.908203 -0.763321,-3.336319 -1.611159,-6.664019 -2.30664,-10.009766 z m -3.621094,17.544922 c -0.290512,0.768908 -0.637417,1.525137 -0.716797,2.355469 -0.377105,2.262086 0.832068,4.354327 2.09961,6.121094 -1.461752,-0.641742 -2.830468,-1.510388 -4.078125,-2.503906 -1.029637,-0.806347 -2.100065,-2.120602 -1.53711,-3.498047 0.946176,-1.410455 2.675997,-1.993191 4.232422,-2.47461 z m 5.339844,0 c 1.556425,0.481419 3.286247,1.064155 4.232422,2.47461 0.562956,1.377445 -0.507473,2.6917 -1.53711,3.498047 -1.247657,0.993518 -2.616373,1.862164 -4.078125,2.503906 1.267542,-1.766767 2.476715,-3.859008 2.09961,-6.121094 -0.07938,-0.830332 -0.426285,-1.586561 -0.716797,-2.355469 z M 11,32.177734 c 1.861334,0.158906 3.72265,0.317657 5.583984,0.476563 -0.983027,0.475266 -2.016663,0.866484 -2.9375,1.455078 C 14.023796,36.440058 14.789753,38.700181 15.294922,41 14.310069,39.012716 13.338651,37.018334 12.345703,35.035156 11.951564,34.121926 11.0165,32.899179 11,32.177734 Z m 26,0 c -0.0165,0.721445 -0.951564,1.944192 -1.345703,2.857422 -0.992948,1.983178 -1.964366,3.97756 -2.949219,5.964844 0.505169,-2.299819 1.271126,-4.559942 1.648438,-6.890625 -0.920837,-0.588594 -1.954473,-0.979812 -2.9375,-1.455078 C 33.27735,32.495391 35.138666,32.33664 37,32.177734 Z"
       id="rect2" />
    <path
       style="opacity:0.1;fill:#ffffff"
       d="M 16,4 C 9.352,4 4,9.352 4,16 v 1 C 4,10.352 9.352,5 16,5 h 16 c 6.648,0 12,5.352 12,12 V 16 C 44,9.352 38.648,4 32,4 Z"
       id="path8" />
  </g>
</svg>

<?xml version="1.0" encoding="UTF-8" standalone="no"?>
<svg
   xmlns:dc="http://purl.org/dc/elements/1.1/"
   xmlns:cc="http://creativecommons.org/ns#"
   xmlns:rdf="http://www.w3.org/1999/02/22-rdf-syntax-ns#"
   xmlns:svg="http://www.w3.org/2000/svg"
   xmlns="http://www.w3.org/2000/svg"
   xmlns:sodipodi="http://sodipodi.sourceforge.net/DTD/sodipodi-0.dtd"
   xmlns:inkscape="http://www.inkscape.org/namespaces/inkscape"
   id="svg30"
   version="1"
   height="48"
   width="48"
   sodipodi:docname="bug.svg"
   inkscape:version="0.92.3 (2405546, 2018-03-11)">
  <sodipodi:namedview
     pagecolor="#ffffff"
     bordercolor="#666666"
     borderopacity="1"
     objecttolerance="10"
     gridtolerance="10"
     guidetolerance="10"
     inkscape:pageopacity="0"
     inkscape:pageshadow="2"
     inkscape:window-width="3840"
     inkscape:window-height="2053"
     id="namedview7"
     showgrid="false"
     inkscape:zoom="9.8333333"
     inkscape:cx="-32.033898"
     inkscape:cy="24"
     inkscape:window-x="0"
     inkscape:window-y="42"
     inkscape:window-maximized="1"
     inkscape:current-layer="svg30" />
  <metadata
     id="metadata36">
    <rdf:RDF>
      <cc:Work
         rdf:about="">
        <dc:format>image/svg+xml</dc:format>
        <dc:type
           rdf:resource="http://purl.org/dc/dcmitype/StillImage" />
        <dc:title />
      </cc:Work>
    </rdf:RDF>
  </metadata>
  <defs
     id="defs34" />
  <path
     id="rect2"
     d="M 16 5 C 9.352 5 4 10.352 4 17 L 4 33 C 4 39.648 9.352 45 16 45 L 32 45 C 38.648 45 44 39.648 44 33 L 44 17 C 44 10.352 38.648 5 32 5 L 16 5 z M 12.894531 9 C 13.121706 9.8413676 13.327972 10.69034 13.634766 11.507812 C 14.297086 13.324977 15.945406 15.495479 17.941406 16.181641 C 19.446586 14.317046 21.160938 12.60006 22.837891 10.908203 C 21.849045 12.562424 20.859616 14.21748 19.873047 15.873047 C 17.841489 19.345522 15.981215 22.916422 13.992188 26.414062 C 13.418577 27.287643 12.783679 28.866407 12.228516 29.337891 C 12.701826 26.732882 13.450629 24.172072 14.546875 21.755859 C 15.028341 20.554907 15.645784 19.436009 16.34375 18.369141 C 15.687369 17.887421 15.056982 17.028392 14.675781 16.546875 C 13.273134 14.31195 12.875851 11.59304 12.894531 9 z M 35.105469 9 C 35.124149 11.59304 34.726866 14.31195 33.324219 16.546875 C 32.943018 17.028392 32.312631 17.887421 31.65625 18.369141 C 32.354216 19.436009 32.971659 20.554907 33.453125 21.755859 C 34.549371 24.172072 35.298174 26.732882 35.771484 29.337891 C 35.216321 28.866407 34.581423 27.287644 34.007812 26.414062 C 32.018785 22.916422 30.158511 19.345522 28.126953 15.873047 C 27.140384 14.21748 26.150955 12.562424 25.162109 10.908203 C 26.839061 12.60006 28.553414 14.317046 30.058594 16.181641 C 32.054594 15.495479 33.702914 13.324977 34.365234 11.507812 C 34.672028 10.69034 34.878293 9.8413676 35.105469 9 z M 23.048828 10.757812 L 23.048828 10.910156 C 22.353347 14.255903 21.505509 17.583603 20.742188 20.919922 C 20.380719 22.212641 20.223364 23.592485 19.726562 24.828125 C 17.967897 26.08863 16.211695 27.353537 14.435547 28.589844 C 14.0756 28.711666 12.859805 29.982972 13.021484 29.367188 C 16.31793 23.141324 19.685382 16.949079 23.048828 10.757812 z M 24.951172 10.757812 C 28.314618 16.949079 31.68207 23.141324 34.978516 29.367188 C 35.140195 29.982973 33.9244 28.711666 33.564453 28.589844 C 31.788305 27.353537 30.032103 26.08863 28.273438 24.828125 C 27.776636 23.592485 27.61928 22.212641 27.257812 20.919922 C 26.494491 17.583603 25.646653 14.255903 24.951172 10.910156 L 24.951172 10.757812 z M 21.330078 28.302734 C 21.039566 29.071642 20.692661 29.827871 20.613281 30.658203 C 20.236176 32.920289 21.445349 35.01253 22.712891 36.779297 C 21.251139 36.137555 19.882423 35.268909 18.634766 34.275391 C 17.605129 33.469044 16.534701 32.154789 17.097656 30.777344 C 18.043832 29.366889 19.773653 28.784153 21.330078 28.302734 z M 26.669922 28.302734 C 28.226347 28.784153 29.956169 29.366889 30.902344 30.777344 C 31.4653 32.154789 30.394871 33.469044 29.365234 34.275391 C 28.117577 35.268909 26.748861 36.137555 25.287109 36.779297 C 26.554651 35.01253 27.763824 32.920289 27.386719 30.658203 C 27.307339 29.827871 26.960434 29.071642 26.669922 28.302734 z M 11 32.177734 C 12.861334 32.33664 14.72265 32.495391 16.583984 32.654297 C 15.600957 33.129563 14.567321 33.520781 13.646484 34.109375 C 14.023796 36.440058 14.789753 38.700181 15.294922 41 C 14.310069 39.012716 13.338651 37.018334 12.345703 35.035156 C 11.951564 34.121926 11.0165 32.899179 11 32.177734 z M 37 32.177734 C 36.9835 32.899179 36.048436 34.121926 35.654297 35.035156 C 34.661349 37.018334 33.689931 39.012716 32.705078 41 C 33.210247 38.700181 33.976204 36.440058 34.353516 34.109375 C 33.432679 33.520781 32.399043 33.129563 31.416016 32.654297 C 33.27735 32.495391 35.138666 32.33664 37 32.177734 z "
     style="opacity:1;fill:#cccccc" />
  <path
     id="path8"
     d="M 16 4 C 9.352 4 4 9.352 4 16 L 4 17 C 4 10.352 9.352 5 16 5 L 32 5 C 38.648 5 44 10.352 44 17 L 44 16 C 44 9.352 38.648 4 32 4 L 16 4 z"
     style="fill:#ffffff;opacity:0.1" />
</svg>
